X: 12
T: 12 Weeks And A Day
R: reel
M: 4/4
K: Bminor
|:ef~f2 edBD|EFAB deed|ef~f2 edBf|afed dede|
ef~f2 edBD|EFAB deed|ef~f2 edBf|1 edBA Bcde:|2 edBA B3c||
|:dBBA Bggf|dB~B2 gffe|dABd EFAB|EDEF ABde|
dBBA Bggf|dB~B2 gffa|bf~f2 eg~g2|1 edBA B3c:|2 edBA Bcde||

